Numix-Light/16/status/indicator-keyboard-Cm-2.svg

<?xml version="1.0" encoding="UTF-8" standalone="no"?>
<svg
   xmlns:dc="http://purl.org/dc/elements/1.1/"
   xmlns:cc="http://creativecommons.org/ns#"
   xmlns:rdf="http://www.w3.org/1999/02/22-rdf-syntax-ns#"
   xmlns:svg="http://www.w3.org/2000/svg"
   xmlns="http://www.w3.org/2000/svg"
   xmlns:sodipodi="http://sodipodi.sourceforge.net/DTD/sodipodi-0.dtd"
   xmlns:inkscape="http://www.inkscape.org/namespaces/inkscape"
   viewBox="0 0 16 16"
   id="svg2"
   version="1.1"
   inkscape:version="0.91 r13725"
   sodipodi:docname="indicator-keyboard-Cm-2.svg">
  <metadata
     id="metadata14">
    <rdf:RDF>
      <cc:Work
         rdf:about="">
        <dc:format>image/svg+xml</dc:format>
        <dc:type
           rdf:resource="http://purl.org/dc/dcmitype/StillImage" />
      </cc:Work>
    </rdf:RDF>
  </metadata>
  <defs
     id="defs12" />
  <sodipodi:namedview
     pagecolor="#ffffff"
     bordercolor="#666666"
     borderopacity="1"
     objecttolerance="10"
     gridtolerance="10"
     guidetolerance="10"
     inkscape:pageopacity="0"
     inkscape:pageshadow="2"
     inkscape:window-width="640"
     inkscape:window-height="480"
     id="namedview10"
     showgrid="false"
     inkscape:zoom="14.75"
     inkscape:cx="8"
     inkscape:cy="8"
     inkscape:window-x="65"
     inkscape:window-y="24"
     inkscape:window-maximized="0"
     inkscape:current-layer="svg2" />
  <path
     style="fill:#353535;fill-opacity:1"
     d="M 1.5996094 0 C 0.71320937 2.9605947e-16 0 0.71320937 0 1.5996094 L 0 14.400391 C 2.9605947e-16 15.286791 0.71320937 16 1.5996094 16 L 14.400391 16 C 15.286791 16 16 15.286791 16 14.400391 L 16 1.5996094 C 16 0.71320937 15.286791 0 14.400391 0 L 1.5996094 0 z M 3.1289062 4.7246094 C 3.3629063 4.7246094 3.5755781 4.7395312 3.7675781 4.7695312 C 3.9595781 4.7995313 4.1274844 4.8387187 4.2714844 4.8867188 C 4.4154844 4.9287188 4.538625 4.9734844 4.640625 5.0214844 C 4.742625 5.0634844 4.821 5.1026719 4.875 5.1386719 L 4.6757812 5.6699219 C 4.5257813 5.5799219 4.3336094 5.4922031 4.0996094 5.4082031 C 3.8716094 5.3182031 3.5861406 5.2734375 3.2441406 5.2734375 C 2.8541406 5.2734375 2.51275 5.3387031 2.21875 5.4707031 C 1.93075 5.6027031 1.6882344 5.7892969 1.4902344 6.0292969 C 1.2922344 6.2692969 1.1430156 6.5547656 1.0410156 6.8847656 C 0.94501559 7.2147656 0.89648438 7.5804219 0.89648438 7.9824219 C 0.89648438 8.3964219 0.94501559 8.7714219 1.0410156 9.1074219 C 1.1430156 9.4374219 1.2884688 9.719125 1.4804688 9.953125 C 1.6724687 10.187125 1.9075938 10.366188 2.1835938 10.492188 C 2.4655938 10.618187 2.7864844 10.681641 3.1464844 10.681641 C 3.5424844 10.681641 3.8727188 10.646219 4.1367188 10.574219 C 4.4067187 10.496219 4.6100469 10.417844 4.7480469 10.339844 L 4.9199219 10.861328 C 4.8779219 10.891328 4.805125 10.928703 4.703125 10.970703 C 4.601125 11.006703 4.4724063 11.045891 4.3164062 11.087891 C 4.1604062 11.129891 3.9793906 11.161547 3.7753906 11.185547 C 3.5713906 11.215547 3.3437969 11.230469 3.0917969 11.230469 C 2.6897969 11.230469 2.3147969 11.159625 1.9667969 11.015625 C 1.6247969 10.871625 1.3244063 10.660766 1.0664062 10.384766 C 0.81440622 10.108765 0.61484375 9.7691875 0.46484375 9.3671875 C 0.32084375 8.9591875 0.24804687 8.4946563 0.24804688 7.9726562 C 0.24804688 7.4506563 0.32642187 6.9898906 0.48242188 6.5878906 C 0.64442187 6.1798906 0.85709372 5.8365469 1.1210938 5.5605469 C 1.3850938 5.2845469 1.6910625 5.0774531 2.0390625 4.9394531 C 2.3870625 4.7954531 2.7509062 4.7246094 3.1289062 4.7246094 z M 7.7128906 6.3535156 C 8.3008906 6.3535156 8.7262344 6.5232344 8.9902344 6.8652344 C 9.0202344 6.8412344 9.0781094 6.8020469 9.1621094 6.7480469 C 9.2521094 6.6880469 9.3621406 6.6283594 9.4941406 6.5683594 C 9.6261406 6.5083594 9.779125 6.4580156 9.953125 6.4160156 C 10.133125 6.3740156 10.330875 6.3535156 10.546875 6.3535156 C 10.900875 6.3535156 11.186344 6.407625 11.402344 6.515625 C 11.624344 6.617625 11.796016 6.7630781 11.916016 6.9550781 C 12.036016 7.1410781 12.116203 7.3668594 12.158203 7.6308594 C 12.200203 7.8948594 12.220703 8.1821406 12.220703 8.4941406 L 12.220703 11.095703 L 11.636719 11.095703 L 11.636719 8.6835938 C 11.636719 8.3775938 11.621797 8.1145781 11.591797 7.8925781 C 11.567797 7.6645781 11.513688 7.4779844 11.429688 7.3339844 C 11.351687 7.1839844 11.237891 7.0739531 11.087891 7.0019531 C 10.937891 6.9239531 10.741953 6.8847656 10.501953 6.8847656 C 10.321953 6.8847656 10.157813 6.9015 10.007812 6.9375 C 9.8638124 6.9675 9.7369063 7.0066875 9.6289062 7.0546875 C 9.5209062 7.1026875 9.431375 7.1512188 9.359375 7.1992188 C 9.293375 7.2472187 9.2448437 7.2826406 9.2148438 7.3066406 C 9.2688438 7.4626406 9.3080312 7.6398906 9.3320312 7.8378906 C 9.3620312 8.0298906 9.3769531 8.2332188 9.3769531 8.4492188 L 9.3769531 11.095703 L 8.7929688 11.095703 L 8.7929688 8.6835938 C 8.7929688 8.3775938 8.7780469 8.1145781 8.7480469 7.8925781 C 8.7240469 7.6645781 8.6699375 7.4779844 8.5859375 7.3339844 C 8.5019375 7.1839844 8.3806094 7.0739531 8.2246094 7.0019531 C 8.0746094 6.9239531 7.8750469 6.8847656 7.6230469 6.8847656 C 7.3410469 6.8847656 7.1003438 6.8996875 6.9023438 6.9296875 C 6.7103438 6.9596875 6.5872031 6.9857656 6.5332031 7.0097656 L 6.5332031 11.095703 L 5.9492188 11.095703 L 5.9492188 6.6054688 C 6.1232187 6.5574688 6.3470469 6.5033594 6.6230469 6.4433594 C 6.9050469 6.3833594 7.2688906 6.3535156 7.7128906 6.3535156 z M 14.423828 8.7539062 C 14.817728 8.7539062 15.1136 8.851875 15.3125 9.046875 C 15.5114 9.237975 15.611328 9.5044563 15.611328 9.8476562 C 15.611328 9.9997563 15.583897 10.14475 15.529297 10.28125 C 15.474697 10.41385 15.400241 10.543169 15.306641 10.667969 C 15.216941 10.792769 15.115047 10.912297 14.998047 11.029297 C 14.881047 11.146297 14.761525 11.263859 14.640625 11.380859 C 14.539225 11.478359 14.439297 11.578288 14.341797 11.679688 C 14.248197 11.777188 14.161984 11.877116 14.083984 11.978516 C 14.009884 12.076016 13.951097 12.172031 13.904297 12.269531 C 13.861397 12.363131 13.839844 12.457181 13.839844 12.550781 L 13.839844 12.5625 L 15.751953 12.5625 L 15.751953 12.896484 L 13.417969 12.896484 C 13.417969 12.888684 13.415976 12.874969 13.412109 12.855469 L 13.412109 12.755859 C 13.412109 12.572559 13.445419 12.402094 13.511719 12.246094 C 13.578019 12.086194 13.662272 11.937275 13.763672 11.796875 C 13.868972 11.656475 13.982622 11.525197 14.107422 11.404297 C 14.236122 11.283397 14.359563 11.165834 14.476562 11.052734 C 14.574062 10.959134 14.666153 10.869003 14.751953 10.783203 C 14.841653 10.693503 14.920028 10.603366 14.986328 10.509766 C 15.052628 10.416166 15.105531 10.316237 15.144531 10.210938 C 15.183531 10.105638 15.201172 9.9900344 15.201172 9.8652344 C 15.201172 9.5922344 15.128669 9.39825 14.980469 9.28125 C 14.836169 9.16035 14.651987 9.0996094 14.429688 9.0996094 C 14.304887 9.0996094 14.193203 9.1152844 14.095703 9.1464844 C 13.998203 9.1776844 13.913944 9.2149125 13.839844 9.2578125 C 13.769644 9.2968125 13.708903 9.3379594 13.658203 9.3808594 C 13.607503 9.4237594 13.570275 9.4570688 13.546875 9.4804688 L 13.347656 9.2167969 C 13.371056 9.1894969 13.412203 9.1503094 13.470703 9.0996094 C 13.533103 9.0450094 13.609519 8.9921062 13.699219 8.9414062 C 13.792819 8.8907063 13.898631 8.8476 14.019531 8.8125 C 14.140431 8.7735 14.275628 8.7539063 14.423828 8.7539062 z "
     id="path4" />
</svg>

<svg xmlns="http://www.w3.org/2000/svg" viewBox="0 0 16 16">
 <path d="m 1.6 0 c -0.886 0 -1.6 0.713 -1.6 1.6 l 0 12.801 c 0 0.886 0.713 1.6 1.6 1.6 l 12.801 0 c 0.886 0 1.6 -0.713 1.6 -1.6 l 0 -12.801 c 0 -0.886 -0.713 -1.6 -1.6 -1.6 l -12.801 0 z m 1.529 4.725 c 0.234 0 0.447 0.015 0.639 0.045 c 0.192 0.03 0.36 0.069 0.504 0.117 c 0.144 0.042 0.267 0.087 0.369 0.135 c 0.102 0.042 0.18 0.081 0.234 0.117 l -0.199 0.531 c -0.15 -0.09 -0.342 -0.178 -0.576 -0.262 c -0.228 -0.09 -0.513 -0.135 -0.855 -0.135 c -0.39 0 -0.731 0.065 -1.025 0.197 c -0.288 0.132 -0.531 0.319 -0.729 0.559 c -0.198 0.24 -0.347 0.525 -0.449 0.855 c -0.096 0.33 -0.145 0.696 -0.145 1.098 c 0 0.414 0.049 0.789 0.145 1.125 c 0.102 0.33 0.247 0.612 0.439 0.846 c 0.192 0.234 0.427 0.413 0.703 0.539 c 0.282 0.126 0.603 0.189 0.963 0.189 c 0.396 0 0.726 -0.035 0.99 -0.107 c 0.27 -0.078 0.473 -0.156 0.611 -0.234 l 0.172 0.521 c -0.042 0.03 -0.115 0.067 -0.217 0.109 c -0.102 0.036 -0.231 0.075 -0.387 0.117 c -0.156 0.042 -0.337 0.074 -0.541 0.098 c -0.204 0.03 -0.432 0.045 -0.684 0.045 c -0.402 0 -0.777 -0.071 -1.125 -0.215 c -0.342 -0.144 -0.642 -0.355 -0.9 -0.631 c -0.252 -0.276 -0.452 -0.616 -0.602 -1.018 c -0.144 -0.408 -0.217 -0.873 -0.217 -1.395 c 0 -0.522 0.078 -0.983 0.234 -1.385 c 0.162 -0.408 0.375 -0.751 0.639 -1.027 c 0.264 -0.276 0.57 -0.483 0.918 -0.621 c 0.348 -0.144 0.712 -0.215 1.09 -0.215 z m 4.584 1.629 c 0.588 0 1.013 0.17 1.277 0.512 c 0.03 -0.024 0.088 -0.063 0.172 -0.117 c 0.09 -0.06 0.2 -0.12 0.332 -0.18 c 0.132 -0.06 0.285 -0.11 0.459 -0.152 c 0.18 -0.042 0.378 -0.063 0.594 -0.063 c 0.354 0 0.639 0.054 0.855 0.162 c 0.222 0.102 0.394 0.247 0.514 0.439 c 0.12 0.186 0.2 0.412 0.242 0.676 c 0.042 0.264 0.063 0.551 0.063 0.863 l 0 2.602 l -0.584 0 l 0 -2.412 c 0 -0.306 -0.015 -0.569 -0.045 -0.791 c -0.024 -0.228 -0.078 -0.415 -0.162 -0.559 c -0.078 -0.15 -0.192 -0.26 -0.342 -0.332 c -0.15 -0.078 -0.346 -0.117 -0.586 -0.117 c -0.18 0 -0.344 0.017 -0.494 0.053 c -0.144 0.03 -0.271 0.069 -0.379 0.117 c -0.108 0.048 -0.198 0.097 -0.27 0.145 c -0.066 0.048 -0.115 0.083 -0.145 0.107 c 0.054 0.156 0.093 0.333 0.117 0.531 c 0.03 0.192 0.045 0.395 0.045 0.611 l 0 2.646 l -0.584 0 l 0 -2.412 c 0 -0.306 -0.015 -0.569 -0.045 -0.791 c -0.024 -0.228 -0.078 -0.415 -0.162 -0.559 c -0.084 -0.15 -0.205 -0.26 -0.361 -0.332 c -0.15 -0.078 -0.35 -0.117 -0.602 -0.117 c -0.282 0 -0.523 0.015 -0.721 0.045 c -0.192 0.03 -0.315 0.056 -0.369 0.08 l 0 4.086 l -0.584 0 l 0 -4.49 c 0.174 -0.048 0.398 -0.102 0.674 -0.162 c 0.282 -0.06 0.646 -0.09 1.09 -0.09 z m 6.711 2.4 c 0.394 0 0.69 0.098 0.889 0.293 c 0.199 0.191 0.299 0.458 0.299 0.801 c 0 0.152 -0.027 0.297 -0.082 0.434 c -0.055 0.133 -0.129 0.262 -0.223 0.387 c -0.09 0.125 -0.192 0.244 -0.309 0.361 c -0.117 0.117 -0.237 0.235 -0.357 0.352 c -0.101 0.098 -0.201 0.197 -0.299 0.299 c -0.094 0.098 -0.18 0.197 -0.258 0.299 c -0.074 0.097 -0.133 0.194 -0.18 0.291 c -0.043 0.094 -0.064 0.188 -0.064 0.281 l 0 0.012 l 1.912 0 l 0 0.334 l -2.334 0 c 0 -0.008 -0.002 -0.022 -0.006 -0.041 l 0 -0.1 c 0 -0.183 0.033 -0.354 0.1 -0.51 c 0.066 -0.16 0.151 -0.309 0.252 -0.449 c 0.105 -0.14 0.219 -0.272 0.344 -0.393 c 0.129 -0.121 0.252 -0.238 0.369 -0.352 c 0.098 -0.094 0.19 -0.184 0.275 -0.27 c 0.09 -0.09 0.168 -0.18 0.234 -0.273 c 0.066 -0.094 0.119 -0.194 0.158 -0.299 c 0.039 -0.105 0.057 -0.221 0.057 -0.346 c 0 -0.273 -0.073 -0.467 -0.221 -0.584 c -0.144 -0.121 -0.328 -0.182 -0.551 -0.182 c -0.125 0 -0.236 0.016 -0.334 0.047 c -0.098 0.031 -0.182 0.068 -0.256 0.111 c -0.07 0.039 -0.131 0.08 -0.182 0.123 c -0.051 0.043 -0.088 0.076 -0.111 0.1 l -0.199 -0.264 c 0.023 -0.027 0.065 -0.066 0.123 -0.117 c 0.062 -0.055 0.139 -0.108 0.229 -0.158 c 0.094 -0.051 0.199 -0.094 0.32 -0.129 c 0.121 -0.039 0.256 -0.059 0.404 -0.059 z" style="fill:#353535;fill-opacity:1"/>
</svg>
